svg/blobs-icons/no-decorations/pie-chart.svg

<svg xmlns="http://www.w3.org/2000/svg" xmlns:xlink="http://www.w3.org/1999/xlink" preserveAspectRatio="xMidYMid" width="216" height="216" viewBox="0 0 216 216"><defs><style>.cls-3{fill:#0cb04a}.cls-4{fill:#ff3a2f}.cls-5{fill:#000;opacity:.35}</style></defs><g id="group-147svg"><path d="M168.682 131.19c0 46.58-37.76 84.339-84.342 84.339-46.582.0-84.342-37.759-84.342-84.339.0-46.581 37.76-84.339 84.342-84.339V131.19s84.342.0 84.342.0z" id="path-1" class="cls-3" fill-rule="evenodd"/><path d="M215.538 112.447c0-62.11-50.343-112.452-112.455-112.452V112.447s112.455.0 112.455.0z" id="path-2" class="cls-4" fill-rule="evenodd"/><path d="M75.718 131.19s8.622.0 8.622.0.0-84.339.0-84.339C81.43 46.851 78.553 47.015 75.718 47.336V131.19z" id="path-3" class="cls-5" fill-rule="evenodd"/><path d="M159.624 131.19C155.307 173.719 119.39 206.907 75.718 206.907c-21.095.0-40.333-7.797-55.122-20.598 15.466 17.867 38.258 29.22 63.744 29.22 46.582.0 84.342-37.759 84.342-84.339H159.624z" id="path-4" class="cls-5" fill-rule="evenodd"/><path d="M178.165 28.746c17.87 19.909 28.751 46.219 28.751 75.08H103.083S103.083 112.447 103.083 112.447s112.455.0 112.455.0c0-33.248-14.437-63.114-37.373-83.701z" id="path-5" class="cls-5" fill-rule="evenodd"/></g></svg>

<svg xmlns="http://www.w3.org/2000/svg" xmlns:xlink="http://www.w3.org/1999/xlink" preserveAspectRatio="xMidYMid" width="216" height="216" viewBox="0 0 216 216">
  <defs>
    <style>

      .cls-3 {
        fill: #0cb04a;
      }

      .cls-4 {
        fill: #ff3a2f;
      }

      .cls-5 {
        fill: #000000;
        opacity: 0.35;
      }
    </style>
  </defs>
  <g id="group-147svg">
    <path d="M168.682,131.190 C168.682,177.770 130.922,215.529 84.340,215.529 C37.758,215.529 -0.002,177.770 -0.002,131.190 C-0.002,84.609 37.758,46.851 84.340,46.851 C84.340,46.851 84.340,131.190 84.340,131.190 C84.340,131.190 168.682,131.190 168.682,131.190 Z" id="path-1" class="cls-3" fill-rule="evenodd"/>
    <path d="M215.538,112.447 C215.538,50.337 165.195,-0.005 103.083,-0.005 C103.083,-0.005 103.083,112.447 103.083,112.447 C103.083,112.447 215.538,112.447 215.538,112.447 Z" id="path-2" class="cls-4" fill-rule="evenodd"/>
    <path d="M75.718,131.190 C75.718,131.190 84.340,131.190 84.340,131.190 C84.340,131.190 84.340,46.851 84.340,46.851 C81.430,46.851 78.553,47.015 75.718,47.336 C75.718,47.336 75.718,131.190 75.718,131.190 Z" id="path-3" class="cls-5" fill-rule="evenodd"/>
    <path d="M159.624,131.190 C155.307,173.719 119.390,206.907 75.718,206.907 C54.623,206.907 35.385,199.110 20.596,186.309 C36.062,204.176 58.854,215.529 84.340,215.529 C130.922,215.529 168.682,177.770 168.682,131.190 C168.682,131.190 159.624,131.190 159.624,131.190 Z" id="path-4" class="cls-5" fill-rule="evenodd"/>
    <path d="M178.165,28.746 C196.035,48.655 206.916,74.965 206.916,103.826 C206.916,103.826 103.083,103.826 103.083,103.826 C103.083,103.826 103.083,112.447 103.083,112.447 C103.083,112.447 215.538,112.447 215.538,112.447 C215.538,79.199 201.101,49.333 178.165,28.746 Z" id="path-5" class="cls-5" fill-rule="evenodd"/>
  </g>
</svg>
